Papirus/64x64/apps/invesalius.svg

<?xml version="1.0" encoding="UTF-8" standalone="no"?>
<svg
   id="_图层_1"
   version="1.1"
   viewBox="0 0 64 64" width="64" height="64"
   sodipodi:docname="invesalius.svg"
   xml:space="preserve"
   inkscape:version="1.4 (e7c3feb100, 2024-10-09)"
   xmlns:inkscape="http://www.inkscape.org/namespaces/inkscape"
   xmlns:sodipodi="http://sodipodi.sourceforge.net/DTD/sodipodi-0.dtd"
   xmlns:xlink="http://www.w3.org/1999/xlink"
   xmlns="http://www.w3.org/2000/svg"
   xmlns:svg="http://www.w3.org/2000/svg"><sodipodi:namedview
     id="namedview26"
     pagecolor="#505050"
     bordercolor="#eeeeee"
     borderopacity="1"
     inkscape:showpageshadow="0"
     inkscape:pageopacity="0"
     inkscape:pagecheckerboard="0"
     inkscape:deskcolor="#505050"
     inkscape:zoom="7.5572037"
     inkscape:cx="32.220913"
     inkscape:cy="42.740677"
     inkscape:window-width="1920"
     inkscape:window-height="939"
     inkscape:window-x="0"
     inkscape:window-y="34"
     inkscape:window-maximized="1"
     inkscape:current-layer="_图层_1" /><!-- Generator: Adobe Illustrator 29.0.1, SVG Export Plug-In . SVG Version: 2.1.0 Build 192)  --><defs
     id="defs6"><style
       id="style1">
      .st0 {
        fill-opacity: .5;
      }

      .st0, .st1, .st2, .st3, .st4, .st5, .st6, .st7 {
        fill: #fff;
      }

      .st8 {
        fill: #133c9a;
      }

      .st2, .st9 {
        display: none;
      }

      .st3 {
        fill-opacity: .2;
      }

      .st4 {
        fill-opacity: .9;
      }

      .st10 {
        fill: #3370ff;
      }

      .st11 {
        fill: url(#_未命名的渐变_3);
      }

      .st12 {
        fill: url(#_未命名的渐变);
      }

      .st5 {
        fill-opacity: .3;
      }

      .st6 {
        fill-opacity: 0;
      }

      .st7 {
        fill-opacity: .7;
      }

      .st13 {
        fill: #00d6b9;
      }

      .st14 {
        fill: url(#_未命名的渐变_2);
      }
    </style><radialGradient
       id="_未命名的渐变"
       data-name="未命名的渐变"
       cx="123.9"
       cy="-40.2"
       fx="123.9"
       fy="-40.2"
       r="59.4"
       gradientTransform="translate(-26.8 25.5) scale(.6 -.7)"
       gradientUnits="userSpaceOnUse"><stop
         offset="0"
         stop-color="#db202e"
         id="stop1" /><stop
         offset="1"
         stop-color="#e01b24"
         id="stop2" /></radialGradient><radialGradient
       id="_未命名的渐变_2"
       data-name="未命名的渐变 2"
       cx="67.6"
       cy="26.8"
       fx="67.6"
       fy="26.8"
       r="105.2"
       gradientTransform="translate(-26.6 25.3) scale(.6 -.7)"
       gradientUnits="userSpaceOnUse"><stop
         offset="0"
         stop-color="#ffb648"
         id="stop3" /><stop
         offset="1"
         stop-color="#ff7800"
         stop-opacity="0"
         id="stop4" /></radialGradient><radialGradient
       id="_未命名的渐变_3"
       data-name="未命名的渐变 3"
       cx="61.7"
       cy="18.6"
       fx="61.7"
       fy="18.6"
       r="68"
       gradientTransform="translate(-26.8 25.8) scale(.6 -.7)"
       gradientUnits="userSpaceOnUse"><stop
         offset="0"
         stop-color="#c64600"
         id="stop5" /><stop
         offset="1"
         stop-color="#a51d2d"
         id="stop6" /></radialGradient><linearGradient
       id="a"><stop
         offset="0"
         stop-color="#fff"
         id="stop1-3" /><stop
         offset="1"
         stop-color="#fff"
         stop-opacity="0"
         id="stop2-6" /></linearGradient><linearGradient
       gradientTransform="rotate(-90,110.91,115.434)"
       gradientUnits="userSpaceOnUse"
       xlink:href="#a"
       id="b"
       y2="24.145"
       x2="108.974"
       y1="16.246"
       x1="108.118" /><linearGradient
       gradientTransform="rotate(90,135.136,85.779)"
       gradientUnits="userSpaceOnUse"
       xlink:href="#a"
       id="c"
       y2="24.145"
       x2="108.974"
       y1="16.246"
       x1="108.118" /><linearGradient
       gradientUnits="userSpaceOnUse"
       xlink:href="#a"
       id="d"
       y2="24.145"
       x2="108.974"
       y1="16.246"
       x1="108.118" /><linearGradient
       gradientTransform="rotate(180,108.012,88.805)"
       gradientUnits="userSpaceOnUse"
       xlink:href="#a"
       id="e"
       y2="24.145"
       x2="108.974"
       y1="16.246"
       x1="108.118" /></defs><path
     class="st1"
     d="M47.5,64.1H13.8c-7.6,0-13.8-6.3-13.8-13.8V13.7C0,6.2,6.2,0,13.7,0h36.6c7.5,0,13.7,6.2,13.7,13.7v36.6c0,7.5-6.2,13.7-13.7,13.7h-2.9.1Z"
     id="path6"
     style="fill:#f2f2f2;fill-opacity:1" /><g
     id="g48"
     transform="matrix(0.85687396,0,0,0.79803167,7.7211139,6.6765304)"><path
       style="opacity:0.2"
       d="m 29,5 a 22,22 0 0 1 22,22 22,22 0 0 1 -0.0293,0.806641 H 51 v 2.982421 l 0.914062,1.582032 3.710938,6.429687 A 2.80028,2.80028 0 0 1 53.199219,43 H 51 v 6.021484 C 51,51.225822 49.225821,53 47.021484,53 H 41 v 3.894531 C 41,59.168847 39.168847,61 36.894531,61 H 19.105469 C 16.831153,61 15,59.168847 15,56.894531 V 43.947266 A 22,22 0 0 1 7,27 22,22 0 0 1 29,5 Z"
       id="path1" /><circle
       style="fill:#4897e1"
       cx="-29"
       cy="26"
       r="22"
       transform="scale(-1,1)"
       id="circle1" /><path
       style="fill:#4897e1"
       d="M 47.021053,26.8 H 29.778946 C 27.57461,26.8 25.8,28.57461 25.8,30.778946 V 48.021052 C 25.8,50.22539 27.57461,52 29.778946,52 H 47.021053 C 49.22539,52 51,50.22539 51,48.021052 V 30.778946 27 Z"
       id="path2" /><rect
       style="fill:#4897e1"
       width="26"
       height="26"
       x="-41"
       y="34"
       rx="4.105"
       ry="4.105"
       transform="scale(-1,1)"
       id="rect2" /><path
       style="fill:#4897e1"
       d="m 45.926248,23.545702 a 2.80028,2.80028 0 0 1 2.275,1.397266 L 51.91453,31.371484 55.625076,37.8 A 2.80028,2.80028 0 0 1 53.199686,42 H 38.354762 a 2.80028,2.80028 0 0 1 -2.425388,-4.2 l 3.710546,-6.428516 3.71328,-6.428516 a 2.80028,2.80028 0 0 1 2.294142,-1.397266 2.80028,2.80028 0 0 1 0.278906,0 z"
       id="path3-3" /><path
       style="opacity:0.2;fill:#ffffff"
       d="M 29,4 A 22,22 0 0 1 51,26 22,22 0 0 1 50.982422,26.492188 22,22 0 0 0 29,5 22,22 0 0 0 7.023438,26.546875 22,22 0 0 1 7,26 22,22 0 0 1 29,4 Z M 51,26.806641 V 27 A 22,22 0 0 0 50.9941,26.806641 Z M 51,27 v 0.806641 H 50.9707 A 22,22 0 0 0 51,27 Z m 0,2.789062 0.914062,1.582032 3.710938,6.429687 a 2.80028,2.80028 0 0 1 0.326172,1.90625 A 2.80028,2.80028 0 0 0 55.625,38.800781 L 51.914062,32.371094 51,30.789062 Z"
       id="path4" /><path
       style="opacity:0.3"
       d="M 12.929688,11 A 22,22 0 0 0 8.5078125,18 H 49.470703 A 22,22 0 0 0 45.054688,11 Z M 7.0351562,25 A 22,22 0 0 0 7,26 22,22 0 0 0 7.8613281,32 H 52.277344 L 51.914062,31.371094 51,29.789062 V 27 L 50.96484,26.998 A 22,22 0 0 0 51,26 22,22 0 0 0 50.951172,25 Z M 11.298828,39 A 22,22 0 0 0 15,42.947266 V 46 h 36 v -4 h 2.199219 a 2.80028,2.80028 0 0 0 2.789062,-3 z M 15,53 v 2.894531 C 15,58.168701 16.831299,60 19.105469,60 H 36.894531 C 39.168701,60 41,58.168701 41,55.894531 V 53 Z"
       id="path5" /><path
       style="opacity:0.2"
       d="m 12.929688,11 a 22,22 0 0 0 -4.4218755,7 h 0.4394531 a 22,22 0 0 1 3.9824224,-6 h 32.125 a 22,22 0 0 1 3.964843,6 h 0.451172 A 22,22 0 0 0 45.054688,11 Z M 7.0351562,25 A 22,22 0 0 0 7,26 22,22 0 0 0 7.0214844,26.392578 22,22 0 0 1 7.0351562,26 H 50.951172 a 22,22 0 0 1 0.0293,0.580078 A 22,22 0 0 0 51,26 22,22 0 0 0 50.951172,25 Z M 51,27 a 22,22 0 0 1 -0.03516,0.998047 L 51,28 Z m 0,2.789062 v 1 L 51.699219,32 h 0.578125 L 51.914062,31.371094 Z M 11.298828,39 a 22,22 0 0 0 0.808594,1 h 43.769531 a 2.80028,2.80028 0 0 0 0.111328,-1 z M 15,53 v 1 h 26 v -1 z"
       id="path6-7" /></g></svg>

<svg xmlns="http://www.w3.org/2000/svg" width="64" height="64" version="1.1">
 <path style="opacity:0.2" d="m 29,5 a 22,22 0 0 1 22,22 22,22 0 0 1 -0.0293,0.806641 H 51 v 2.982421 l 0.914062,1.582032 3.710938,6.429687 A 2.80028,2.80028 0 0 1 53.199219,43 H 51 v 6.021484 C 51,51.225822 49.225821,53 47.021484,53 H 41 v 3.894531 C 41,59.168847 39.168847,61 36.894531,61 H 19.105469 C 16.831153,61 15,59.168847 15,56.894531 V 43.947266 A 22,22 0 0 1 7,27 22,22 0 0 1 29,5 Z"/>
 <circle style="fill:#4897e1" cx="-29" cy="26" r="22" transform="scale(-1,1)"/>
 <path style="fill:#4897e1" d="M 47.021053,26.8 H 29.778946 C 27.57461,26.8 25.8,28.57461 25.8,30.778946 V 48.021052 C 25.8,50.22539 27.57461,52 29.778946,52 H 47.021053 C 49.22539,52 51,50.22539 51,48.021052 V 30.778946 27 Z"/>
 <rect style="fill:#4897e1" width="26" height="26" x="-41" y="34" rx="4.105" ry="4.105" transform="scale(-1,1)"/>
 <path style="fill:#4897e1" d="m 45.926248,23.545702 a 2.80028,2.80028 0 0 1 2.275,1.397266 L 51.91453,31.371484 55.625076,37.8 A 2.80028,2.80028 0 0 1 53.199686,42 H 38.354762 a 2.80028,2.80028 0 0 1 -2.425388,-4.2 l 3.710546,-6.428516 3.71328,-6.428516 a 2.80028,2.80028 0 0 1 2.294142,-1.397266 2.80028,2.80028 0 0 1 0.278906,0 z"/>
 <path style="opacity:0.2;fill:#ffffff" d="M 29,4 A 22,22 0 0 1 51,26 22,22 0 0 1 50.982422,26.492188 22,22 0 0 0 29,5 22,22 0 0 0 7.023438,26.546875 22,22 0 0 1 7,26 22,22 0 0 1 29,4 Z M 51,26.806641 V 27 A 22,22 0 0 0 50.9941,26.806641 Z M 51,27 v 0.806641 H 50.9707 A 22,22 0 0 0 51,27 Z m 0,2.789062 0.914062,1.582032 3.710938,6.429687 a 2.80028,2.80028 0 0 1 0.326172,1.90625 A 2.80028,2.80028 0 0 0 55.625,38.800781 L 51.914062,32.371094 51,30.789062 Z"/>
 <path style="opacity:0.3" d="M 12.929688 11 A 22 22 0 0 0 8.5078125 18 L 49.470703 18 A 22 22 0 0 0 45.054688 11 L 12.929688 11 z M 7.0351562 25 A 22 22 0 0 0 7 26 A 22 22 0 0 0 7.8613281 32 L 52.277344 32 L 51.914062 31.371094 L 51 29.789062 L 51 27 L 50.964844 26.998047 A 22 22 0 0 0 51 26 A 22 22 0 0 0 50.951172 25 L 7.0351562 25 z M 11.298828 39 A 22 22 0 0 0 15 42.947266 L 15 46 L 51 46 L 51 42 L 53.199219 42 A 2.80028 2.80028 0 0 0 55.988281 39 L 11.298828 39 z M 15 53 L 15 55.894531 C 15 58.168701 16.831299 60 19.105469 60 L 36.894531 60 C 39.168701 60 41 58.168701 41 55.894531 L 41 53 L 15 53 z"/>
 <path style="opacity:0.2" d="M 12.929688 11 A 22 22 0 0 0 8.5078125 18 L 8.9472656 18 A 22 22 0 0 1 12.929688 12 L 45.054688 12 A 22 22 0 0 1 49.019531 18 L 49.470703 18 A 22 22 0 0 0 45.054688 11 L 12.929688 11 z M 7.0351562 25 A 22 22 0 0 0 7 26 A 22 22 0 0 0 7.0214844 26.392578 A 22 22 0 0 1 7.0351562 26 L 50.951172 26 A 22 22 0 0 1 50.980469 26.580078 A 22 22 0 0 0 51 26 A 22 22 0 0 0 50.951172 25 L 7.0351562 25 z M 51 27 A 22 22 0 0 1 50.964844 27.998047 L 51 28 L 51 27 z M 51 29.789062 L 51 30.789062 L 51.699219 32 L 52.277344 32 L 51.914062 31.371094 L 51 29.789062 z M 11.298828 39 A 22 22 0 0 0 12.107422 40 L 55.876953 40 A 2.80028 2.80028 0 0 0 55.988281 39 L 11.298828 39 z M 15 53 L 15 54 L 41 54 L 41 53 L 15 53 z"/>
</svg>
